img/release-notes.svg

<svg enable-background="new 0 0 23 23" viewBox="0 0 23 23" xmlns="http://www.w3.org/2000/svg"><g fill="none" stroke="#5879da" stroke-width=".75"><path d="m1.2 3c-.3 0-.5.2-.5.5v18.5c0 .3.2.5.5.5h20.5c.3 0 .5-.2.5-.5v-18.5c0-.3-.2-.5-.5-.5z"/><path d="m6.3 5.8h9.7m-9.7 4.6h9.7m-9.7 4.8h9.7m4.2-14.5v2m-2.9-2v2m-2.9-2v2m-2.9-2v2m-3-2v2m-2.9-2v2m-2.6-2v2m3.3 16.9h9.7" stroke-linecap="round"/></g></svg>

<?xml version="1.0" encoding="utf-8"?>
<!-- Generator: Adobe Illustrator 23.0.1, SVG Export Plug-In . SVG Version: 6.00 Build 0)  -->
<svg version="1.1" xmlns="http://www.w3.org/2000/svg" xmlns:xlink="http://www.w3.org/1999/xlink" x="0px" y="0px"
	 viewBox="0 0 23 23" style="enable-background:new 0 0 23 23;" xml:space="preserve">
<style type="text/css">
	.st0{display:none;}
	.st1{display:inline;}
	.st2{fill:none;stroke:#5879DA;}
	.st3{display:inline;fill:none;stroke:#5879DA;}
	.st4{fill:none;stroke:#5879DA;stroke-width:0.75;stroke-linecap:round;stroke-linejoin:round;stroke-miterlimit:10;}
	.st5{fill:none;stroke:#5879DA;stroke-width:0.75;}
	.st6{fill:none;stroke:#5879DA;stroke-width:0.75;stroke-linecap:round;}
</style>
<g id="Layer_1" class="st0">
	<g>
		<g class="st1">
			<path class="st2" d="M11.2,0.7C8.4,2.8,5.3,3.9,1.8,4.1V16c1.1,2.1,3,3.7,5.3,5c1.7,0.9,3.6,1.5,4.2,1.5c0.7,0,2.7-0.6,4.4-1.5
				c2.4-1.2,4.3-2.9,5.5-5v-4.8V9.8V4.1C17,4,13.7,2.8,11.2,0.7z"/>
		</g>
		<polyline class="st3" points="6,14.4 9.8,16.9 16.9,7 		"/>
	</g>
	<g class="st1">
		<path class="st4" d="M11.8,0.5C9.3,2.6,6.2,3.7,2.5,4.1v3.7c0,6.7,3.7,12.6,9.2,14.7l0,0l0,0c5.5-2.1,9.2-8,9.2-14.7V4.1
			C17.4,3.7,14.2,2.6,11.8,0.5z"/>
		<line class="st4" x1="7.6" y1="11.7" x2="11.3" y2="15.4"/>
		<line class="st4" x1="16.8" y1="7.1" x2="11.3" y2="15.4"/>
	</g>
</g>
<g id="Layer_2">
	<g>
		<path class="st5" d="M1.2,3C0.9,3,0.7,3.2,0.7,3.5V22c0,0.3,0.2,0.5,0.5,0.5h20.5c0.3,0,0.5-0.2,0.5-0.5V3.5C22.2,3.2,22,3,21.7,3
			C21.7,3,1.2,3,1.2,3z"/>
		<path class="st6" d="M6.3,5.8H16 M6.3,10.4H16 M6.3,15.2H16 M16,22.1 M6.3,22.1 M20.2,0.7v2 M17.3,0.7v2 M14.4,0.7v2 M11.5,0.7v2
			 M8.5,0.7v2 M5.6,0.7v2 M3,0.7v2 M6.3,19.6H16"/>
	</g>
</g>
</svg>
